X: 1
T: Lassie Come and Dance Wi' Me
O: from Terry Traub
N: Tune for Postie's Jig
N: from Carl Wilson Youtube song
N: arr. T. Traub 6-29-2012
M: 6/8
K: G
f |\
"G"g2g f2f | "G"e2d d2d | "G"d2B A2B | "D"c3- c2a |\
"Am"a2a ^g2g | "D"=g2f f2e | "D"d2d e2c | "G"B3- B2 ||
g |\
"G"g2g f2f | "G"e2d d2d | "G"d2B A2G | "C"e3- e2e |\
"D"e2f a2g | "G"g2d d2g | "D"f2d e2f | "G"g3- g2 |]
B |\
"G"B2B G2A | "G"B2G G2A | "G"B2B G2A | "G"B3- B2c |\
"Am"c2c A2B | "Am"c2B A2B | "Am"c2B A2B | "D"c3- c2 ||
B |\
"G"B2B G2A | "G"B2G G2A | "G"B2B G2A | "G"B3- B2B |\
"A"A2B ^c2A | "D"d2e f2g | "A"a2g f2e | "D"d3- d2 |]
